X:1
T:Badea, SM
T:Badea, SM
T:German melody
T:Public Domain Courtesy of the Cyber Hymnal™
C:German melody
Z:Public Domain
Z:Courtesy of the Cyber Hymnal™
%%score ( 1 2 ) ( 3 4 )
L:1/8
Q:1/4=110
M:4/4
K:F
V:1 treble 
V:2 treble 
V:3 bass 
V:4 bass 
V:1
 [Fc]2 | [Fc]2 [CA]2 [DF]2 [EG]2 | [FA]6 [Fc]2 | [FB]2 [FA]2 [FG]2 [EG]2 | F6 [Fc]2 | %5
 [Fc]2 [Fd]2 [DB]2 [Gc]2 | [FA]2 [FB]2 [EG]2 [Ec]2 | [FA]2 [FA]2 [FG]2 [EG]2 | F6 |] %9
V:2
 x2 | x8 | x8 | x8 | F6 x2 | x8 | x8 | x8 | F6 |] %9
V:3
 [F,A,]2 | [F,A,]2 [F,A,]2 [D,A,]2 [C,C]2 | [F,C]6 [A,,C]2 | [B,,D]2 [F,C]2 [C,C]2 [C,B,]2 | %4
 [F,A,]6 [F,A,]2 | [F,A,]2 [D,A,]2 [G,B,]2 [E,G,]2 | [F,A,]2 [B,,D]2 [C,C]2 [C,C]2 | %7
 [F,C]2 [D,D]2 [B,,D]2 (CB,) | [F,A,]6 |] %9
V:4
 x2 | x8 | x8 | x8 | x8 | x8 | x8 | x6 C,2 | x6 |] %9

